X: 6837
T: Charlie Hunter
R: jig
M: 6/8
K: Dmajor
|:"D"DFA "G"GBd|"D"Adf a2g|"D"fed "Bm"Bcd|"G"ecA "A7"GFE|
"D"DFA "G"GBd|"D"Adf a2g|"D"fef "G"gec|"A"edc "D"d3:|
|:"D"afd dcd|"G"BGF G2F|"E7"EGB e2d|"A"cAG A2g|
"D"fdA FDF|"G"GBd g2g|"D"fef "G"gec|"A"edc "D"d3:|

